packages/katcn/src/icons/svg/programCode-solid.svg

<svg width="24" height="25" viewBox="0 0 24 25" fill="none" xmlns="http://www.w3.org/2000/svg">
<path d="M2 6.97601H3H21H22H22.7C22.8 6.97601 22.9 6.97601 23 6.97601C23 4.75379 21.3 2.97601 19.3 2.97601H4.7C2.7 2.97601 1 4.75379 1 6.97601C1.1 6.97601 1.2 6.97601 1.3 6.97601H2Z" fill="black"/>
<path d="M22 8.97602H21H3H2H1.3C1.2 8.97602 1.1 8.97602 1 8.97602V18.413C1 20.339 2.7 21.976 4.7 21.976H19.3C21.4 21.976 23 20.339 23 18.413V8.97601C22.6614 8.97601 22.4072 8.97602 22 8.97602Z" fill="black"/>
<path d="M9.7 18.376C9.5 18.376 9.2 18.276 9 18.176L6 15.476C5.8 15.276 5.7 14.976 5.7 14.676C5.7 14.376 5.8 14.176 6 13.976L9 11.276C9.4 10.876 10 10.976 10.4 11.376C10.8 11.776 10.7 12.376 10.3 12.776L8.1 14.676L10.3 16.576C10.7 16.976 10.8 17.576 10.4 17.976C10.3 18.276 10 18.376 9.7 18.376Z" fill="white"/>
<path d="M14.3 18.376C14 18.376 13.7 18.276 13.5 18.076C13.1 17.676 13.2 17.076 13.6 16.676L15.8 14.776L13.6 12.876C13.2 12.476 13.1 11.876 13.5 11.476C13.9 11.076 14.5 10.976 14.9 11.376L18 13.976C18.2 14.176 18.3 14.476 18.3 14.776C18.3 15.076 18.2 15.376 18 15.576L15 18.176C14.8 18.276 14.5 18.376 14.3 18.376Z" fill="white"/>
</svg>

<svg xmlns="http://www.w3.org/2000/svg" fill="none" viewBox="0 0 24 25"><path fill="#000" d="M2 6.976h21c0-2.222-1.7-4-3.7-4H4.7c-2 0-3.7 1.778-3.7 4zm20 2H1v9.437c0 1.926 1.7 3.563 3.7 3.563h14.6c2.1 0 3.7-1.637 3.7-3.563V8.976z"/><path fill="#fff" d="M9.7 18.376c-.2 0-.5-.1-.7-.2l-3-2.7c-.2-.2-.3-.5-.3-.8s.1-.5.3-.7l3-2.7c.4-.4 1-.3 1.4.1s.3 1-.1 1.4l-2.2 1.9 2.2 1.9c.4.4.5 1 .1 1.4-.1.3-.4.4-.7.4m4.6 0c-.3 0-.6-.1-.8-.3-.4-.4-.3-1 .1-1.4l2.2-1.9-2.2-1.9c-.4-.4-.5-1-.1-1.4s1-.5 1.4-.1l3.1 2.6c.2.2.3.5.3.8s-.1.6-.3.8l-3 2.6c-.2.1-.5.2-.7.2"/></svg>
